!!!COM:	Bach, Johann Sebastian
!!!OMV:	Herzliebester Jesu, was hast du verbrochen
!!!OTL:	Herzliebester Jesu, was hast du verbrochen
**kern	**fb	**kern	**kern	**kern	**kern
*part5	*part5	*part4	*part3	*part2	*part1
*staff5	*	*staff4	*staff3	*staff2	*staff1
*I"Continuo	*	*I"Voice	*I"Voice	*I"Voice	*I"Voice
*I'Cont.	*	*I'V	*I'V	*I'V	*I'V
*clefF4	*	*clefF4	*clefGv2	*clefG2	*clefG2
*Trd0c0	*	*	*	*	*
*k[]	*	*k[]	*k[]	*k[]	*k[]
*M4/4	*	*M4/4	*M4/4	*M4/4	*M4/4
4A	.	4A	8AL	8cL	4a
.	.	.	8BJ	8dJ	.
=2	=2	=2	=2	=2	=2
8AAL	.	8AAL	4c	4e	4a
8BBJ	.	8BBJ	.	.	.
8CL	6	8CL	4c	4e	4a
8DJ	.	8DJ	.	.	.
8EL	#	8EL	4B	4e	4g#X
8FJ	.	8FJ	.	.	.
8EL	.	8EL	4G#X	4B	4e
8DJ	.	8DJ	.	.	.
=3	=3	=3	=3	=3	=3
8CL	6	8CL	4A	8eL	4a
8DJ	.	8DJ	.	8f#XJ	.
8CL	7 #5\	8CL	4d	4g#X	4b
8BBJ	.	8BBJ	.	.	.
8AAL	.	8AAL	4e	4a	4cc
8BBJ	.	8EJ	.	.	.
8AAL	.	8AL	4e	4a	4cc
8GGJ	.	8GnJ	.	.	.
=4	=4	=4	=4	=4	=4
8FFL	6	8FnL	4f	2a	4dd
8EEJ	.	8EJ	.	.	.
8FFL	5	8FL	4A	.	16ccLL
.	.	.	.	.	16bJ
8DDJ	.	8DJ	.	.	8ccJ
4EE;	#	4E;	4e;	4g#X;	4b;
4E	.	4E	4e	4g#	4b
=5	=5	=5	=5	=5	=5
8AL	.	8AL	4e	4a	4cc
8GJ	.	8GnJ	.	.	.
8FL	6 4 2	8FL	4B	4gn	8dd
8GJ	.	8GJ	.	.	16eeLL
.	.	.	.	.	16ffJJ
8CL	.	8CL	4c	4g	4ee
8DJ	.	8DJ	.	.	.
8EL	6	8EL	4A	4f	4cc
8FJ	.	8FJ	.	.	.
=6	=6	=6	=6	=6	=6
!!linebreak:original
8DL	.	8DL	4d	4a	4ff
8EJ	.	8EJ	.	.	.
8FL	6	8FL	4d	4a	4ff
8GJ	.	8GJ	.	.	.
8AL	.	8AL	4c	4a	8eeL
8BJ	.	8BJ	.	.	8ddJ
8AL	.	8AL	4c	4e	8ccL
8GJ	.	8GJ	.	.	8ddJ
=7	=7	=7	=7	=7	=7
8FL	6 5	8FL	4c	4a	2dd
8EJ	.	8EJ	.	.	.
8FL	6 4 2	8FL	4B	4g	.
8GJ	.	8GJ	.	.	.
4C;	.	4C;	4e;	4g;	4cc;
4A	.	4A	4e	4a	4cc
=8	=8	=8	=8	=8	=8
8D#XL	6 5	8D#XL	8f#XL	8aL	4b
8EJ	.	8EJ	8eJ	8gJ	.
8F#XL	9	8F#XL	4c	8gL	4a
8D#J	7 5	8D#J	.	8f#XJ	.
8EL	.	8EL	4B	4e	8gL
8F#J	.	8F#J	.	.	8f#XJ
8GL	6	8GL	4B	4e	8eL
8F#J	.	8F#J	.	.	8f#J
=9	=9	=9	=9	=9	=9
8EL	.	8EL	4B	8eL	4g
8FJ	.	8FnJ	.	8dJ	.
8EL	#6\ -r5	8EL	4B-X	8c#XL	4g
8DJ	.	8DJ	.	8dJ	.
8C#XL	6	8C#XL	4A	4e	4a
8AAJ	.	8AAJ	.	.	.
8BBL	6 4	8BBL	4A	4e	4g
8C#J	.	8C#J	.	.	.
=10	=10	=10	=10	=10	=10
8DL	9	8DL	2A	4e	2f
8EJ	.	8EJ	.	.	.
8FL	6	8FL	.	4d	.
8GJ	.	8GJ	.	.	.
4A;	#	4A;	4A;	4c#X;	4e;
8AL	n	8AL	4cn	4a	4ee
8GJ	.	8GJ	.	.	.
=11	=11	=11	=11	=11	=11
!!pagebreak:original
8F#XL	6 5	8F#XL	8cL	8aL	4dd
8G#XJ	6 5	8G#XJ	8BJ	8bJ	.
8AL	.	8AL	4A	8eL	8ccL
8FnJ	6 4 3	8FnJ	.	8dJ	8bJ
8DL	6 5	8DL	4A	4f	2b
8BBJ	.	8BBJ	.	.	.
4E	8 #	4E	4G#X	8eL	.
.	7	.	.	8dJ	.
=12	=12	=12	=12	=12	=12
2.AA;	#	2.AA;	2.E;	2.c#X;	2.a;
=:|!	=:|!	=:|!	=:|!	=:|!	=:|!
*-	*-	*-	*-	*-	*-
!!!system-decoration: s1,s2,s3,s4,s5
